X:1
T: City of Savannah
C:
R:Reel
Q: 232
K:D
M:4/4
L:1/8
|:((3ABA) FA df af|ga ba gf ed|cd ed cd Bc|AB GA FF G^G|
((3ABA) FA df af|ga ba gf ed|cb ag fe Bc|d2 f2 d2 z2:|
|:((3efe) ce ae c'e|be ^ge ae be|((3efe) ce ae c'e|be ^ge a2 z2|
((3aba) ga ea Aa|((3aba) fa da Aa|((3gag) Bg ((3fgf) Af|ea bc' d'2 z2:|
